korla/apps/scalable/guvcview.svg

<!DOCTYPE svg  PUBLIC '-//W3C//DTD SVG 1.1//EN'  'http://www.w3.org/Graphics/SVG/1.1/DTD/svg11.dtd'>
<svg style="clip-rule:evenodd;fill-rule:evenodd;stroke-linejoin:round;stroke-miterlimit:1.41421" version="1.1" viewBox="0 0 64 64" xmlns="http://www.w3.org/2000/svg">
 <path d="m32 6c-14.403 0-25.998 11.596-25.998 26s11.595 26 25.998 26 25.998-11.596 25.998-26-11.595-26-25.998-26z" style="fill-rule:nonzero;fill:url(#_Linear1)"/>
 <g transform="matrix(1.50539,0,0,1.50539,-16.1724,-16.1724)">
  <path d="m32 23c-4.986 0-9 4.014-9 9s4.014 9 9 9 9-4.014 9-9-4.014-9-9-9z" style="fill:url(#_Linear2)"/>
 </g>
 <g transform="matrix(3.68153,0,0,3.68153,-85.809,-85.809)">
  <path d="m32 29c1.662 0 3 1.338 3 3s-1.338 3-3 3-3-1.338-3-3 1.338-3 3-3z" style="fill:url(#_Linear3)"/>
 </g>
 <defs>
  <linearGradient id="_Linear1" x2="1" gradientTransform="matrix(-.279369 -52.25 52.25 -.279369 32.2794 58.25)" gradientUnits="userSpaceOnUse">
   <stop style="stop-color:rgb(135,152,169)" offset="0"/>
   <stop style="stop-color:rgb(191,200,209)" offset="1"/>
  </linearGradient>
  <linearGradient id="_Linear2" x2="1" gradientTransform="matrix(1.10218e-15,-18,18,1.10218e-15,32.5294,41)" gradientUnits="userSpaceOnUse">
   <stop style="stop-color:rgb(61,67,74)" offset="0"/>
   <stop style="stop-color:rgb(95,105,116)" offset="1"/>
  </linearGradient>
  <linearGradient id="_Linear3" x2="1" gradientTransform="matrix(1.10218e-15,-18,18,1.10218e-15,32.5294,41)" gradientUnits="userSpaceOnUse">
   <stop style="stop-color:rgb(0,102,255)" offset="0"/>
   <stop style="stop-color:rgb(51,150,230)" offset="1"/>
  </linearGradient>
 </defs>
</svg>

<?xml version="1.0" encoding="UTF-8" standalone="no"?>
<!DOCTYPE svg PUBLIC "-//W3C//DTD SVG 1.1//EN" "http://www.w3.org/Graphics/SVG/1.1/DTD/svg11.dtd">
<svg width="100%" height="100%" viewBox="0 0 64 64" version="1.1" xmlns="http://www.w3.org/2000/svg" xmlns:xlink="http://www.w3.org/1999/xlink" xml:space="preserve" xmlns:serif="http://www.serif.com/" style="fill-rule:evenodd;clip-rule:evenodd;stroke-linejoin:round;stroke-miterlimit:1.41421;">
    <g>
        <path d="M32,6C17.597,6 6.002,17.596 6.002,32C6.002,46.404 17.597,58 32,58C46.403,58 57.998,46.404 57.998,32C57.998,17.596 46.403,6 32,6Z" style="fill:url(#_Linear1);fill-rule:nonzero;"/>
        <g transform="matrix(1.50539,0,0,1.50539,-16.1724,-16.1724)">
            <path d="M32,23C27.014,23 23,27.014 23,32C23,36.986 27.014,41 32,41C36.986,41 41,36.986 41,32C41,27.014 36.986,23 32,23Z" style="fill:url(#_Linear2);"/>
        </g>
        <g transform="matrix(3.68153,0,0,3.68153,-85.809,-85.809)">
            <path d="M32,29C33.662,29 35,30.338 35,32C35,33.662 33.662,35 32,35C30.338,35 29,33.662 29,32C29,30.338 30.338,29 32,29Z" style="fill:url(#_Linear3);"/>
        </g>
    </g>
    <defs>
        <linearGradient id="_Linear1" x1="0" y1="0" x2="1" y2="0" gradientUnits="userSpaceOnUse" gradientTransform="matrix(-0.279369,-52.25,52.25,-0.279369,32.2794,58.25)"><stop offset="0" style="stop-color:rgb(135,152,169);stop-opacity:1"/><stop offset="1" style="stop-color:rgb(191,200,209);stop-opacity:1"/></linearGradient>
        <linearGradient id="_Linear2" x1="0" y1="0" x2="1" y2="0" gradientUnits="userSpaceOnUse" gradientTransform="matrix(1.10218e-15,-18,18,1.10218e-15,32.5294,41)"><stop offset="0" style="stop-color:rgb(61,67,74);stop-opacity:1"/><stop offset="1" style="stop-color:rgb(95,105,116);stop-opacity:1"/></linearGradient>
        <linearGradient id="_Linear3" x1="0" y1="0" x2="1" y2="0" gradientUnits="userSpaceOnUse" gradientTransform="matrix(1.10218e-15,-18,18,1.10218e-15,32.5294,41)"><stop offset="0" style="stop-color:rgb(0,102,255);stop-opacity:1"/><stop offset="1" style="stop-color:rgb(51,150,230);stop-opacity:1"/></linearGradient>
    </defs>
</svg>
